X:1
T:The Jolly Beggerman
M:C|
L:1/8
Q:80
C:
S:Hornpipe
K:HP
[| e | \
{g}A3/4{d}A/4{e}A3/4{d}B/4{g}A3/4B/4{g}c3/4d/4 | \
{g}e3/4f/4{g}e3/4c/4{Gdc}d{g}c3/4d/4 | \
{gef}e{AGAG}A{g}A3/4B/4{g}c/4{d}A3/4 |
{g}B3/4{d}G/4{e}G3/4A/4{gBd}Be | \
{g}A3/4{d}A/4{e}A3/4{d}B/4{g}A3/4B/4{g}c3/4d/4 | \
{g}e3/4f/4{g}e3/4c/4{Gdc}d{g}c3/4d/4 |
{g}e3/4a/4{g}a3/4g/4a3/4f/4{gef}e3/4d/4 | \
{gcd}c{e}A{GAG}A|]
e |
{g}A3/4{d}A/4{e}A3/4{d}B/4{g}A3/4B/4{g}c3/4d/4 | \
{g}e3/4f/4{g}e3/4c/4{Gdc}d{g}c3/4d/4 | \
{gef}e{AGAG}A{g}A3/4B/4{g}c/4{d}A3/4 |
{g}B3/4{d}G/4{e}G3/4A/4{gBd}Be | \
{g}A3/4{d}A/4{e}A3/4{d}B/4{g}A3/4B/4{g}c3/4d/4 | \
{g}e3/4f/4{g}e3/4c/4{Gdc}d{g}c3/4d/4 |
{g}e3/4a/4{g}a3/4g/4a3/4f/4{gef}e3/4d/4 | \
{gcd}c{e}A{GAG}A|]
{g}e3/4f/4 |
{a}g{f}g3/4a/4{f}g3/4f/4{g}e3/4f/4 | \
{a}g3/4f/4{g}e3/4c/4{Gdc}d{g}c3/4d/4 | \
{gef}e{AGAG}A{g}A3/4B/4{g}c/4{d}A3/4 |
{g}B3/4{d}G/4{e}G3/4A/4{gBd}Be3/4f/4 | \
{a}g{f}g3/4a/4{f}g3/4f/4{g}e3/4f/4 | \
{a}g3/4f/4{g}e3/4c/4{Gdc}d{g}c3/4d/4 |
{g}e3/4a/4{g}a3/4g/4a3/4f/4{gef}e3/4d/4 | \
{gcd}c{e}A{GAG}A|]
{g}e3/4f/4 |
{a}g{f}g3/4a/4{f}g3/4f/4{g}e3/4f/4 | \
{a}g3/4f/4{g}e3/4c/4{Gdc}d{g}c3/4d/4 | \
{gef}e{AGAG}A{g}A3/4B/4{g}c/4{d}A3/4 |
{g}B3/4{d}G/4{e}G3/4A/4{gBd}Be | \
{g}A3/4{d}A/4{e}A3/4{d}B/4{g}A3/4B/4{g}c3/4d/4 | \
{g}e3/4f/4{g}e3/4c/4{Gdc}d{g}c3/4d/4 |
{g}e3/4a/4{g}a3/4g/4a3/4f/4{gef}e3/4d/4 | \
{gcd}c{e}A{GAG}A|]
